app/img/main/ic_project.svg

<svg width="89" height="79" viewBox="0 0 89 79" fill="none" xmlns="http://www.w3.org/2000/svg">
    <path d="M69 0H20C8.9543 0 0 8.9543 0 20V59C0 70.0457 8.9543 79 20 79H69C80.0457 79 89 70.0457 89 59V20C89 8.9543 80.0457 0 69 0Z"
          fill="url(#paint0_linear)"/>
    <path d="M69 0.5H20C9.23045 0.5 0.5 9.23045 0.5 20V59C0.5 69.7696 9.23045 78.5 20 78.5H69C79.7696 78.5 88.5 69.7696 88.5 59V20C88.5 9.23045 79.7696 0.5 69 0.5Z"
          stroke="#FAFAFA" stroke-opacity="0.1"/>
    <path d="M26.5 45.5V40.5C26.5 39.9477 26.9477 39.5 27.5 39.5H59.5C60.0523 39.5 60.5 39.9477 60.5 40.5V45"
          stroke="#022AF0" stroke-width="4" stroke-linecap="round"/>
    <path d="M29 47H25C22.7909 47 21 48.7909 21 51V55C21 57.2091 22.7909 59 25 59H29C31.2091 59 33 57.2091 33 55V51C33 48.7909 31.2091 47 29 47Z"
          stroke="#022AF0" stroke-width="4" stroke-linejoin="round"/>
    <path d="M62 47H58C55.7909 47 54 48.7909 54 51V55C54 57.2091 55.7909 59 58 59H62C64.2091 59 66 57.2091 66 55V51C66 48.7909 64.2091 47 62 47Z"
          stroke="#022AF0" stroke-width="4" stroke-linejoin="round"/>
    <path d="M43.5 31V39.5" stroke="#022AF0" stroke-width="4" stroke-linecap="round"/>
    <path d="M43.5 32C45.1811 32 46.8245 31.5015 48.2223 30.5675C49.6202 29.6335 50.7096 28.306 51.353 26.7528C51.9963 25.1996 52.1646 23.4906 51.8367 21.8417C51.5087 20.1929 50.6992 18.6783 49.5104 17.4896C48.3217 16.3008 46.8071 15.4913 45.1583 15.1633C43.5094 14.8354 41.8004 15.0037 40.2472 15.647C38.694 16.2904 37.3665 17.3798 36.4325 18.7777C35.4985 20.1755 35 21.8189 35 23.5C35 25.7543 35.8955 27.9164 37.4896 29.5104C39.0836 31.1045 41.2457 32 43.5 32ZM43.5 19.6364C44.2642 19.6364 45.0111 19.863 45.6465 20.2875C46.2819 20.712 46.7771 21.3155 47.0695 22.0215C47.362 22.7274 47.4385 23.5043 47.2894 24.2538C47.1403 25.0032 46.7723 25.6917 46.232 26.232C45.6917 26.7723 45.0032 27.1403 44.2538 27.2894C43.5043 27.4385 42.7274 27.362 42.0214 27.0695C41.3155 26.7771 40.712 26.2819 40.2875 25.6465C39.863 25.0112 39.6364 24.2642 39.6364 23.5C39.6364 22.4753 40.0434 21.4926 40.768 20.768C41.4926 20.0434 42.4753 19.6364 43.5 19.6364Z"
          fill="white"/>
    <defs>
        <linearGradient id="paint0_linear" x1="30" y1="13" x2="105" y2="99" gradientUnits="userSpaceOnUse">
            <stop stop-color="#5DD4E8"/>
            <stop offset="1" stop-color="#76F3B5"/>
        </linearGradient>
    </defs>
</svg>

<svg width="89" height="79" fill="none" xmlns="http://www.w3.org/2000/svg"><path d="M69 0H20C8.954 0 0 8.954 0 20v39c0 11.046 8.954 20 20 20h49c11.046 0 20-8.954 20-20V20C89 8.954 80.046 0 69 0Z" fill="url(#a)"/><path d="M69 .5H20C9.23.5.5 9.23.5 20v39C.5 69.77 9.23 78.5 20 78.5h49c10.77 0 19.5-8.73 19.5-19.5V20C88.5 9.23 79.77.5 69 .5Z" stroke="#FAFAFA" stroke-opacity=".1"/><path d="M26.5 45.5v-5a1 1 0 0 1 1-1h32a1 1 0 0 1 1 1V45" stroke="#022AF0" stroke-width="4" stroke-linecap="round"/><path d="M29 47h-4a4 4 0 0 0-4 4v4a4 4 0 0 0 4 4h4a4 4 0 0 0 4-4v-4a4 4 0 0 0-4-4ZM62 47h-4a4 4 0 0 0-4 4v4a4 4 0 0 0 4 4h4a4 4 0 0 0 4-4v-4a4 4 0 0 0-4-4Z" stroke="#022AF0" stroke-width="4" stroke-linejoin="round"/><path d="M43.5 31v8.5" stroke="#022AF0" stroke-width="4" stroke-linecap="round"/><path d="M43.5 32a8.5 8.5 0 1 0 0-17 8.5 8.5 0 0 0 0 17Zm0-12.364a3.864 3.864 0 1 1 0 7.728 3.864 3.864 0 0 1 0-7.728Z" fill="#fff"/><defs><linearGradient id="a" x1="30" y1="13" x2="105" y2="99" gradientUnits="userSpaceOnUse"><stop stop-color="#5DD4E8"/><stop offset="1" stop-color="#76F3B5"/></linearGradient></defs></svg>
